icons/numix/16x16/status/gsm-3g-high-secure.svg

<?xml version="1.0" encoding="UTF-8" standalone="no"?>
<svg
   xmlns:dc="http://purl.org/dc/elements/1.1/"
   xmlns:cc="http://creativecommons.org/ns#"
   xmlns:rdf="http://www.w3.org/1999/02/22-rdf-syntax-ns#"
   xmlns:svg="http://www.w3.org/2000/svg"
   xmlns="http://www.w3.org/2000/svg"
   xmlns:sodipodi="http://sodipodi.sourceforge.net/DTD/sodipodi-0.dtd"
   xmlns:inkscape="http://www.inkscape.org/namespaces/inkscape"
   width="16"
   height="16"
   viewBox="0 0 16 16"
   id="svg3049"
   version="1.1"
   inkscape:version="0.48.5 r10040"
   sodipodi:docname="gsm-3g-high-secure.svg">
  <metadata
     id="metadata3097">
    <rdf:RDF>
      <cc:Work
         rdf:about="">
        <dc:format>image/svg+xml</dc:format>
        <dc:type
           rdf:resource="http://purl.org/dc/dcmitype/StillImage" />
      </cc:Work>
    </rdf:RDF>
  </metadata>
  <sodipodi:namedview
     pagecolor="#ffffff"
     bordercolor="#666666"
     borderopacity="1"
     objecttolerance="10"
     gridtolerance="10"
     guidetolerance="10"
     inkscape:pageopacity="0"
     inkscape:pageshadow="2"
     inkscape:window-width="1280"
     inkscape:window-height="998"
     id="namedview3095"
     showgrid="false"
     inkscape:zoom="20.85965"
     inkscape:cx="2.0838335"
     inkscape:cy="6.9872845"
     inkscape:window-x="0"
     inkscape:window-y="0"
     inkscape:window-maximized="1"
     inkscape:current-layer="svg3049" />
  <defs
     id="defs3051">
    <clipPath
       id="clip1">
      <rect
         width="16"
         height="16"
         id="rect3054" />
    </clipPath>
    <filter
       width="100%"
       x="0"
       y="0"
       height="100%"
       filterUnits="objectBoundingBox"
       id="alpha">
      <feColorMatrix
         values="0 0 0 0 1 0 0 0 0 1 0 0 0 0 1 0 0 0 1 0"
         in="SourceGraphic"
         type="matrix"
         id="feColorMatrix3057" />
    </filter>
    <g
       style="clip-path:url(#clip1)"
       id="surface6"
       clip-path="url(#clip1)">
      <path
         style="fill:#000;fill-opacity:.302"
         d="M 13.820312 2.910156 C 13.414062 2.910156 13.089844 3.234375 13.089844 3.636719 L 13.089844 13.816406 C 13.089844 14.222656 13.414062 14.546875 13.820312 14.546875 C 14.222656 14.546875 14.546875 14.222656 14.546875 13.816406 L 14.546875 3.636719 C 14.546875 3.234375 14.222656 2.910156 13.820312 2.910156 Z "
         id="path3060" />
      <path
         style="fill:#dcdcdc"
         d="M 13.820312 2.183594 C 14.21875 2.183594 14.546875 2.507812 14.546875 2.910156 L 14.546875 13.089844 C 14.546875 13.492188 14.21875 13.816406 13.820312 13.816406 C 13.417969 13.816406 13.089844 13.492188 13.089844 13.089844 L 13.089844 2.910156 C 13.089844 2.507812 13.417969 2.183594 13.820312 2.183594 Z "
         id="path3062" />
    </g>
    <mask
       id="mask0">
      <g
         style="filter:url(#alpha)"
         id="g3065">
        <rect
           width="16"
           x="0"
           y="0"
           height="16"
           style="fill:#000;fill-opacity:.4"
           id="rect3067" />
      </g>
    </mask>
  </defs>
  <path
     d="m 13.789889,2.2362809 c 0.402344,0 0.726562,0.324219 0.726562,0.726562 l 0,10.1265631 c 0,0.402344 -0.324218,0.726562 -0.726562,0.726562 -0.402344,0 -0.726563,-0.324218 -0.726563,-0.726562 l 0,-10.1265631 c 0,-0.402343 0.324219,-0.726562 0.726563,-0.726562 z"
     id="path4017"
     inkscape:connector-curvature="0"
     style="opacity:0.4;fill:#ececec;fill-opacity:1"
     sodipodi:nodetypes="sssssss" />
  <path
     style="fill:#ececec;fill-opacity:1"
     inkscape:connector-curvature="0"
     id="path3227"
     d="m 5.0901696,11.636281 c 0.402344,0 0.726562,0.324219 0.726562,0.726562 l 0,0.726563 c 0,0.402344 -0.324218,0.726562 -0.726562,0.726562 -0.402344,0 -0.726563,-0.324218 -0.726563,-0.726562 l 0,-0.726563 c 0,-0.402343 0.324219,-0.726562 0.726563,-0.726562 z" />
  <path
     style="fill:#ececec;fill-opacity:1"
     inkscape:connector-curvature="0"
     id="path3229"
     d="m 0.3636066,7.9995619 c -0.05078,0 -0.09375,0.00391 -0.136719,0.023438 -0.03906,0.019531 -0.08203,0.058593 -0.113281,0.089843 l -0.02344,0.02344 c -0.02344,0.02734 -0.05469,0.05469 -0.06641,0.08984 -0.07031,0.132813 -0.04687,0.296876 0.06641,0.410157 l 2.09375,2.0898431 0,2.726563 c 0,0.203125 0.160156,0.363281 0.363281,0.363281 0.199219,0 0.363281,-0.160156 0.363281,-0.363281 l 0,-2.726563 2.089844,-2.0898431 c 0.113281,-0.113281 0.136719,-0.277344 0.06641,-0.410157 -0.01172,-0.03516 -0.04297,-0.0625 -0.06641,-0.08984 l -0.02344,-0.02344 c -0.06641,-0.06641 -0.160156,-0.1093752 -0.25,-0.1132812 z m 0.886719,0.7265621 0.933594,0 0,0.910157 z m 1.660156,0 0.929688,0 -0.929688,0.933594 z" />
  <path
     inkscape:connector-curvature="0"
     style="fill:#ececec;fill-opacity:1"
     d="m 13.816732,9.452687 c -0.804687,0 -1.453125,0.664063 -1.453125,1.480469 l 0,0.703125 c -0.402343,0 -0.726562,0.324219 -0.726562,0.726562 l 0,2.183594 c 0,0.402344 0.324219,0.726563 0.726562,0.726563 l 2.910157,0 c 0.402343,0 0.726562,-0.324219 0.726562,-0.726563 l 0,-2.183594 c 0,-0.402343 -0.324219,-0.726562 -0.726562,-0.726562 l 0,-0.703125 c 0,-0.816406 -0.648438,-1.480469 -1.457032,-1.480469 z m 0,0.730469 c 0.40625,0 0.730469,0.320312 0.730469,0.726562 l 0,0.726563 -1.457031,0 0,-0.726563 c 0,-0.40625 0.324218,-0.726562 0.726562,-0.726562 z"
     id="path3233" />
  <path
     d="m 7.9898886,8.736281 c 0.402344,0 0.726562,0.324219 0.726562,0.726562 l 0,3.626563 c 0,0.402344 -0.324218,0.726562 -0.726562,0.726562 -0.402344,0 -0.726563,-0.324218 -0.726563,-0.726562 l 0,-3.626563 c 0,-0.402343 0.324219,-0.726562 0.726563,-0.726562 z"
     id="path4013"
     inkscape:connector-curvature="0"
     style="opacity:1;fill:#ececec;fill-opacity:1"
     sodipodi:nodetypes="sssssss" />
  <path
     sodipodi:nodetypes="sssssss"
     style="opacity:1;fill:#ececec;fill-opacity:1"
     inkscape:connector-curvature="0"
     id="path4015"
     d="m 10.889889,5.8362809 c 0.402344,0 0.726562,0.324219 0.726562,0.726562 l 0,6.5265631 c 0,0.402344 -0.324218,0.726562 -0.726562,0.726562 -0.402344,0 -0.726563,-0.324218 -0.726563,-0.726562 l 0,-6.5265631 c 0,-0.402343 0.324219,-0.726562 0.726563,-0.726562 z" />
</svg>

<svg width="16" xmlns="http://www.w3.org/2000/svg" height="16" viewBox="0 0 16 16" xmlns:xlink="http://www.w3.org/1999/xlink">
<defs>
<clipPath id="clip1">
<rect width="16" height="16"/>
</clipPath>
<filter width="100%" x="0" y="0" height="100%" filterUnits="objectBoundingBox" id="alpha">
<feColorMatrix values="0 0 0 0 1 0 0 0 0 1 0 0 0 0 1 0 0 0 1 0" in="SourceGraphic" type="matrix"/>
</filter>
<g style="clip-path:url(#clip1)" id="surface6">
<path style="fill:#000;fill-opacity:.302" d="M 13.820312 2.910156 C 13.414062 2.910156 13.089844 3.234375 13.089844 3.636719 L 13.089844 13.816406 C 13.089844 14.222656 13.414062 14.546875 13.820312 14.546875 C 14.222656 14.546875 14.546875 14.222656 14.546875 13.816406 L 14.546875 3.636719 C 14.546875 3.234375 14.222656 2.910156 13.820312 2.910156 Z "/>
<path style="fill:#dcdcdc" d="M 13.820312 2.183594 C 14.21875 2.183594 14.546875 2.507812 14.546875 2.910156 L 14.546875 13.089844 C 14.546875 13.492188 14.21875 13.816406 13.820312 13.816406 C 13.417969 13.816406 13.089844 13.492188 13.089844 13.089844 L 13.089844 2.910156 C 13.089844 2.507812 13.417969 2.183594 13.820312 2.183594 Z "/>
</g>
<mask id="mask0">
<g style="filter:url(#alpha)">
<rect width="16" x="0" y="0" height="16" style="fill:#000;fill-opacity:.4"/>
</g>
</mask>
</defs>
<g style="fill:#000;fill-opacity:.302">
<path d="M 10.910156 6.546875 C 10.507812 6.546875 10.183594 6.871094 10.183594 7.273438 L 10.183594 13.816406 C 10.183594 14.222656 10.507812 14.546875 10.910156 14.546875 C 11.3125 14.546875 11.636719 14.222656 11.636719 13.816406 L 11.636719 7.273438 C 11.636719 6.871094 11.3125 6.546875 10.910156 6.546875 Z "/>
<path d="M 0.363281 8.726562 C 0.3125 8.726562 0.269531 8.730469 0.226562 8.75 C 0.1875 8.769531 0.144531 8.808594 0.113281 8.839844 L 0.0898438 8.863281 C 0.0664062 8.890625 0.0390625 8.921875 0.0234375 8.953125 C -0.046875 9.085938 -0.0234375 9.25 0.0898438 9.363281 L 2.183594 11.453125 L 2.183594 14.183594 C 2.183594 14.382812 2.34375 14.546875 2.546875 14.546875 C 2.746094 14.546875 2.910156 14.382812 2.910156 14.183594 L 2.910156 11.453125 L 5 9.363281 C 5.113281 9.25 5.136719 9.085938 5.070312 8.953125 C 5.054688 8.921875 5.023438 8.890625 5 8.863281 L 4.976562 8.839844 C 4.910156 8.773438 4.816406 8.730469 4.726562 8.726562 Z "/>
<path d="M 8 9.453125 C 7.597656 9.453125 7.273438 9.777344 7.273438 10.183594 L 7.273438 13.816406 C 7.273438 14.222656 7.597656 14.546875 8 14.546875 C 8.402344 14.546875 8.726562 14.222656 8.726562 13.816406 L 8.726562 10.183594 C 8.726562 9.777344 8.402344 9.453125 8 9.453125 Z "/>
<path d="M 5.089844 12.363281 C 4.6875 12.363281 4.363281 12.6875 4.363281 13.089844 L 4.363281 13.816406 C 4.363281 14.222656 4.6875 14.546875 5.089844 14.546875 C 5.492188 14.546875 5.820312 14.222656 5.820312 13.816406 L 5.820312 13.089844 C 5.820312 12.6875 5.492188 12.363281 5.089844 12.363281 Z "/>
</g>
<use style="mask:url(#mask0)" xlink:href="#surface6"/>
<g style="fill:#dcdcdc">
<path d="M 10.910156 5.816406 C 11.3125 5.816406 11.636719 6.144531 11.636719 6.546875 L 11.636719 13.089844 C 11.636719 13.492188 11.3125 13.816406 10.910156 13.816406 C 10.507812 13.816406 10.183594 13.492188 10.183594 13.089844 L 10.183594 6.546875 C 10.183594 6.144531 10.507812 5.816406 10.910156 5.816406 Z "/>
<path d="M 8 8.726562 C 8.402344 8.726562 8.726562 9.054688 8.726562 9.453125 L 8.726562 13.089844 C 8.726562 13.492188 8.402344 13.816406 8 13.816406 C 7.597656 13.816406 7.273438 13.492188 7.273438 13.089844 L 7.273438 9.453125 C 7.273438 9.054688 7.597656 8.726562 8 8.726562 Z "/>
<path d="M 5.089844 11.636719 C 5.492188 11.636719 5.816406 11.960938 5.816406 12.363281 L 5.816406 13.089844 C 5.816406 13.492188 5.492188 13.816406 5.089844 13.816406 C 4.6875 13.816406 4.363281 13.492188 4.363281 13.089844 L 4.363281 12.363281 C 4.363281 11.960938 4.6875 11.636719 5.089844 11.636719 Z "/>
<path d="M 0.363281 8 C 0.3125 8 0.269531 8.003906 0.226562 8.023438 C 0.1875 8.042969 0.144531 8.082031 0.113281 8.113281 L 0.0898438 8.136719 C 0.0664062 8.164062 0.0351562 8.191406 0.0234375 8.226562 C -0.046875 8.359375 -0.0234375 8.523438 0.0898438 8.636719 L 2.183594 10.726562 L 2.183594 13.453125 C 2.183594 13.65625 2.34375 13.816406 2.546875 13.816406 C 2.746094 13.816406 2.910156 13.65625 2.910156 13.453125 L 2.910156 10.726562 L 5 8.636719 C 5.113281 8.523438 5.136719 8.359375 5.066406 8.226562 C 5.054688 8.191406 5.023438 8.164062 5 8.136719 L 4.976562 8.113281 C 4.910156 8.046875 4.816406 8.003906 4.726562 8 Z M 1.25 8.726562 L 2.183594 8.726562 L 2.183594 9.636719 Z M 2.910156 8.726562 L 3.839844 8.726562 L 2.910156 9.660156 Z "/>
</g>
<path style="fill:#000;fill-opacity:.302" d="M 13.816406 10.183594 C 13.011719 10.183594 12.363281 10.84375 12.363281 11.660156 L 12.363281 12.363281 C 11.960938 12.363281 11.636719 12.6875 11.636719 13.089844 L 11.636719 15.273438 C 11.636719 15.675781 11.960938 16 12.363281 16 L 15.273438 16 C 15.675781 16 16 15.675781 16 15.273438 L 16 13.089844 C 16 12.6875 15.675781 12.363281 15.273438 12.363281 L 15.273438 11.660156 C 15.273438 10.84375 14.625 10.183594 13.816406 10.183594 Z M 13.816406 10.910156 C 14.222656 10.910156 14.546875 11.230469 14.546875 11.636719 L 14.546875 12.363281 L 13.089844 12.363281 L 13.089844 11.636719 C 13.089844 11.230469 13.414062 10.910156 13.816406 10.910156 Z "/>
<path style="fill:#dcdcdc" d="M 13.816406 9.453125 C 13.011719 9.453125 12.363281 10.117188 12.363281 10.933594 L 12.363281 11.636719 C 11.960938 11.636719 11.636719 11.960938 11.636719 12.363281 L 11.636719 14.546875 C 11.636719 14.949219 11.960938 15.273438 12.363281 15.273438 L 15.273438 15.273438 C 15.675781 15.273438 16 14.949219 16 14.546875 L 16 12.363281 C 16 11.960938 15.675781 11.636719 15.273438 11.636719 L 15.273438 10.933594 C 15.273438 10.117188 14.625 9.453125 13.816406 9.453125 Z M 13.816406 10.183594 C 14.222656 10.183594 14.546875 10.503906 14.546875 10.910156 L 14.546875 11.636719 L 13.089844 11.636719 L 13.089844 10.910156 C 13.089844 10.503906 13.414062 10.183594 13.816406 10.183594 Z "/>
</svg>
